src/assets/icons/icons-origin/Stripe.svg

<svg width="24" height="24" viewBox="0 0 24 24" xmlns="http://www.w3.org/2000/svg">
  <svg viewBox="0 0 24 16">
    <path d="M1.91304 0.5H22.087C22.8776 0.5 23.5 1.1245 23.5 1.87234V14.1277C23.5 14.8755 22.8776 15.5 22.087 15.5H1.91304C1.12245 15.5 0.5 14.8755 0.5 14.1277V1.87234C0.5 1.1245 1.12245 0.5 1.91304 0.5Z" fill="white" stroke="#F3F3F3" />
    <path fill-rule="evenodd" clip-rule="evenodd" d="M12.7266 5.35444L11.5074 5.61611V4.62765L12.7266 4.37085V5.35444ZM15.262 5.90198C14.7859 5.90198 14.4799 6.12484 14.31 6.27991L14.2468 5.9795H13.1782V11.6291L14.3925 11.3723L14.3974 10.0011C14.5722 10.127 14.8297 10.3063 15.2571 10.3063C16.1265 10.3063 16.9182 9.60861 16.9182 8.07264C16.9134 6.66751 16.1119 5.90198 15.262 5.90198ZM14.9705 9.24035C14.6839 9.24035 14.5139 9.13862 14.3973 9.01262L14.3925 7.21502C14.5188 7.07452 14.6936 6.97763 14.9705 6.97763C15.4125 6.97763 15.7185 7.47182 15.7185 8.10655C15.7185 8.75582 15.4173 9.24035 14.9705 9.24035ZM20.7457 8.12109C20.7457 6.8807 20.1434 5.90198 18.9923 5.90198C17.8363 5.90198 17.1369 6.8807 17.1369 8.11142C17.1369 9.56983 17.9626 10.3063 19.1477 10.3063C19.7257 10.3063 20.1629 10.1755 20.4931 9.99138V9.02232C20.1629 9.18707 19.784 9.28883 19.3032 9.28883C18.832 9.28883 18.4143 9.12408 18.3609 8.55234H20.736C20.736 8.52566 20.7378 8.46508 20.7398 8.39524C20.7425 8.30027 20.7457 8.18808 20.7457 8.12109ZM18.3463 7.6608C18.3463 7.1133 18.6814 6.88557 18.9874 6.88557C19.2837 6.88557 19.5994 7.1133 19.5994 7.6608H18.3463ZM11.5074 5.98434H12.7265V10.224H11.5074V5.98434ZM10.1232 5.98434L10.2009 6.3429C10.4875 5.81959 11.0558 5.92619 11.2112 5.98434V7.09876C11.0606 7.04544 10.5749 6.97763 10.2883 7.35072V10.224H9.07404V5.98434H10.1232ZM7.77225 4.9329L6.5871 5.18486L6.58226 9.06594C6.58226 9.78302 7.1214 10.3112 7.84024 10.3112C8.23854 10.3112 8.52996 10.2385 8.69025 10.1513V9.1677C8.53483 9.23068 7.76738 9.45357 7.76738 8.73645V7.01637H8.69025V5.98434H7.76738L7.77225 4.9329ZM4.90175 6.95342C4.6443 6.95342 4.48888 7.02607 4.48888 7.21506C4.48888 7.42139 4.75638 7.51214 5.08823 7.62474C5.62922 7.8083 6.3413 8.04988 6.34432 8.9448C6.34432 9.81213 5.64972 10.3112 4.63946 10.3112C4.22172 10.3112 3.76514 10.2288 3.31343 10.035V8.88182C3.72143 9.10471 4.2363 9.26946 4.63946 9.26946C4.91145 9.26946 5.10575 9.19677 5.10575 8.97388C5.10575 8.74536 4.81576 8.6409 4.4657 8.51479C3.93256 8.32272 3.26001 8.08043 3.26001 7.2732C3.26001 6.41558 3.91572 5.90198 4.90175 5.90198C5.30488 5.90198 5.70318 5.96496 6.10631 6.12487V7.2635C5.73715 7.06485 5.27087 6.95342 4.90175 6.95342Z" fill="#6461FC" />
  </svg>
</svg>

<svg width="24" height="24" viewBox="0 0 24 24" xmlns="http://www.w3.org/2000/svg">
  <svg viewBox="0 0 24 16">
    <path d="M1.913.5h20.174c.79 0 1.413.625 1.413 1.372v12.256c0 .748-.622 1.372-1.413 1.372H1.913C1.123 15.5.5 14.876.5 14.128V1.872C.5 1.124 1.122.5 1.913.5Z" fill="#fff" stroke="#F3F3F3"/>
    <path fill-rule="evenodd" clip-rule="evenodd" d="m12.727 5.354-1.22.262v-.988l1.22-.257v.983Zm2.535.548c-.476 0-.782.223-.952.378l-.063-.3h-1.069v5.65l1.214-.258.005-1.37c.175.125.433.304.86.304.87 0 1.661-.697 1.661-2.233-.005-1.405-.806-2.171-1.656-2.171ZM14.97 9.24c-.286 0-.456-.101-.573-.227l-.005-1.798c.127-.14.302-.237.579-.237.441 0 .748.494.748 1.129 0 .649-.302 1.133-.748 1.133Zm5.776-1.119c0-1.24-.603-2.219-1.754-2.219-1.156 0-1.855.979-1.855 2.21 0 1.458.826 2.194 2.01 2.194.579 0 1.016-.13 1.346-.315v-.969c-.33.165-.709.267-1.19.267-.471 0-.889-.165-.942-.737h2.375l.004-.157c.003-.095.006-.207.006-.274Zm-2.4-.46c0-.548.335-.775.641-.775.297 0 .612.227.612.775h-1.253Zm-6.839-1.677h1.22v4.24h-1.22v-4.24Zm-1.384 0 .078.359c.287-.523.855-.417 1.01-.359V7.1c-.15-.054-.636-.121-.923.252v2.873H9.074v-4.24h1.05Zm-2.35-1.051-1.186.252-.005 3.88c0 .718.54 1.246 1.258 1.246.399 0 .69-.072.85-.16v-.983c-.155.063-.923.286-.923-.432v-1.72h.923V5.984h-.923l.005-1.051Zm-2.871 2.02c-.258 0-.413.073-.413.262 0 .206.267.297.6.41.54.183 1.252.425 1.255 1.32 0 .867-.694 1.366-1.705 1.366-.417 0-.874-.082-1.326-.276V8.882c.408.223.923.387 1.326.387.272 0 .467-.072.467-.295 0-.229-.29-.333-.64-.46-.533-.191-1.206-.434-1.206-1.24 0-.858.656-1.372 1.642-1.372.403 0 .801.063 1.204.223v1.138a2.715 2.715 0 0 0-1.204-.31Z" fill="#6461FC"/>
  </svg>
</svg>
